!!!SOCIAL_FUNCTION:	miscellaneous songs
!!!PDT:	1943
!!!OTL: No_95_Your_Pretty_Hair.krn
!!!REG: British Columbia
**kern
*staff1
=1-
*clefG2
*k[b-e-a-]
*M2/4
2g/
=2
4g/
4g/
=3
8.g/L
16f/Jk
8.g/L
16f/Jk
=4||
*M3/4
4f/
2e-/
=5||
*M2/4
4f/
4f/
=6
8e-/L
8c/J
4c/
=7
4r
8.c/L
16c/Jk
=8
2g/
=9
4g/
4g/
=10
8.g/L
16f/Jk
8.g/L
16f/Jk
=11
4f/
[4e-/
=12
2e-/]
=13||
*M3/4
4f/
8.e-/L
16c/Jk
8.B-/L
16c/Jk
=14||
*M2/4
4r
8.c/L
16c/Jk
=15
[2e-/
=16
4e-/]
4e-/
=17||
*M3/4
8.e-/L
16c/Jk
8.e-/L
16c/Jk
8.c/L
16B-/Jk
=18||
*M2/4
2G/
=19
4B-/
4B-/
=20
8.G/L
16G/Jk
4G/
=21
4G/
4G/
==
*-
